X:1
T:Deh Filli vientene
T:Deh Filli vientene
T:Gio.Girolamo Kapsperger
C:Gio.Girolamo Kapsperger
%%score [ 1 2 ] { ( 3 5 ) | 4 }
L:1/8
Q:1/4=120
M:3/2
K:C
V:1 treble nm="Soprano 1" snm="S 1"
V:2 treble nm="Soprano 2" snm="S 2"
V:3 treble nm="BC" snm="BC"
V:5 treble 
V:4 bass 
V:1
 B4 d6 A2 | B6 c2 B4 | c4 c4 d4 | e6 d2 c4 | B2 c2 d2 c2 B4 | ^c6 d2 c4 | d4 c4 c4 | B6 c2 B4 | %8
w: Deh Fil- li-|vien- te- ne|o- ve tra'i|pla- ta- ni,|ri- * ve _ bel-|lis- si- mi,|er- bo- s'e|flo- ri- de,|
w: Deh Fil- li|po- sa- ti|qua do- ve|lim- pi- do,|tra _ dol- * c'e|fle- bi- le,|il fon- te|mor- mo- ra,|
w: I fon- ti|pian- go- no|l'au- re so-|spi- ra- no,|d'A- * mor _ e|sen- to- no,|Fo- co'am- mi-|ra- bi- le,|
w: ||||||||
 d4 d4 d4 | e2 d2 B2 c2 d2 c2 | A2 B2 c2 B2 A4 | G12 :: A4 B4 c4 | d6 e2 d4 | e4 d4 c4 | B6 c2 d4 | %16
w: i lam- pi|chie- * do- * no _|di _ tua _ bel-|ta.|Deh Fil- li'af-|fret- ta- ti|o- ve dol-|cis- si- mo,|
w: deh Fi- li|pie- * ga- * ti _|mos- * s'a _ pie-|ta.|La va- ga|por- po- ra,|il Gi- glio|can- di- do,|
w: deh can- gia'o|Fil- * li- * de _|tua _ cru- * del-|ta.|In que- sto|pal- li- do|mio vol- to|mi- ra- si,|
w: ||||||||
 c4 d4 B4 | A6 B2 G4 | d4 e4 c4 | B6 c2 B4 | d4 d4 d4 | e2 d2 B2 c2 d2 c2 | A2 B2 c2 B2 A4 | G12 :| %24
w: il can- to'ac-|col- ta- si,|d'au- gel che|la- gna- si,|e'in van tor-|men- * ta _ si _|per * cru * del-|ta.|
w: e'i fior piu|no- bi- li,|ve- drai che|lan- gui- di|vin- ti ne|re- * sta- * no _|da _ tua _ bel-|ta.|
w: il duol a-|spris- si- mo,|ch'il cor mi|ma- ce- ra,|del- le mie|la- * gri- * me _|pren- * di _ pie-|ta.|
w: * * a-||||||||
V:2
 G4 G6 ^F2 | G6 A2 G4 | A4 A4 B4 | c6 BA G4 | ^G2 A2 B2 A2 G4 | A6 B2 A4 | ^F4 G4 A4 | G6 A2 G4 | %8
w: Deh Fi- li|vien- te- ne|o- ve tra'i|pla- ta- * ni,|ri- * ve _ bel-|lis- si- mi,|er- bo- s'e|flo- ri- de,|
w: Deh Fi- li|po- sa- ti|qua do- ve|lim- pi- * do,|tra _ dol- * c'e|fle- bi- le,|il fon- te|mor- mo- ra,|
w: I fon- ti|pan- go- no|l'au- re so-|spi- ra- no, *|d'A- * mor _ e|sen- to- no,|Fo- co'am- mi-|ra- bi- le,|
w: ||||||||
 B4 B4 B4 | c2 B2 G2 A2 B2 A2 | ^F2 G2 A2 G2 F4 | G12 :: ^F4 G4 A4 | B6 c2 B4 | c4 B4 A4 | %15
w: i lam- pi|||||||
w: deh Fil- li|chie- * do- * no _|di _ tua _ bel-|ta.|Deh Fil- li'af-|fret- ta- ti|o- ve dol-|
w: deh can- gia'o|pie- * ga- * ti _|mos- * s'a _ pie-|ta.|La va- ga|por- po- ra,|il Gi- glio|
w: |Fil- * li- * de _|tua _ cru- * del-|ta.|In que- sto|pa- li- do|mio vol- to|
 G6 A2 B4 | E4 ^F4 G4 | ^F6 G2 E4 | ^F4 G4 A4 | G6 A2 G4 | B4 B4 B4 | c2 B2 G2 A2 B2 A2 | %22
w: ||||la- gna- si,|e'in van tor-|men- * ta _ si _|
w: cis- si- mo,|il can- to'ac-|col- ta- si,|d'au- gel che|lan- gui- di|vin- ti ne|re- * sta- * no _|
w: can- di- do,|e'i fior piu|no- bi- li,|ve- drai che|ma- ce- ra,|del- le mie|la- * gri- * me _|
w: mi- ra- si,|il duol a-|spris- si- mo,|ch'il cor mi||||
 ^F2 G2 A2 G2 F4 | G12 :| %24
w: per * cru- * del-|ta.|
w: da _ tua _ bel-|ta.|
w: pren- * di _ pie-|ta.|
w: ||
V:3
 [DGB]8 [D^FA]4 | [DGB]12 | [Ac]4 [Gc]4 [GB]4 | [EGc]12 | B4 [FA]4 [EB]4 | [EA^c]12 | %6
 [^FAd]4 G4 A4 | [DBd]12 | A4 [GB]4 [FB]4 | [EGc]4 [EGB]4 [DG]4 | [Ad]4 [EA]4 [^Fd]4 | [DGB]12 :: %12
 [^FAd]4 [DB]4 [Ec]4 | [GBd]12 | [EGc]4 [GB]4 [EA]4 | [GB]8 [DG]4 | [EGc]8 [DGd]4 | [^FAd]8 [GB]4 | %18
 [D^F]4 G4 E4 | [DGB]12 | A4 [GB]4 [FB]4 | [EGc]4 [GB]4 [DB]4 | d4 [ce]4 [Ad]4 | [DGB]12 :| %24
V:4
 G,4 B,,4 D,4 | G,,8 G,,4 | F,4 E,4 D,4 | C,8 C,4 | E,4 D,4 E,4 | A,,8 A,,4 | D,4 E,4 ^F,4 | %7
 G,8 G,4 | F,4 E,4 D,4 | C,4 E,4 B,,4 | D,4 C,4 D,4 | G,,12 :: D,4 B,,4 A,,4 | G,,8 G,,4 | %14
 C,4 G,4 A,4 | E,8 B,,4 | C,8 G,,4 | D,8 E,4 | B,,8 C,4 | G,8 G,4 | F,4 E,4 D,4 | C,4 E,4 B,,4 | %22
 D,4 C,4 D,4 | G,,12 :| %24
V:5
 x12 | x12 | x12 | x12 | x12 | x12 | x12 | x12 | x12 | x12 | x12 | x12 :: x12 | x12 | x12 | x12 | %16
 x12 | x12 | x12 | x12 | x12 | x12 | A6 G2 ^F4 | x12 :| %24

